X:1
T:Typografernes sang
T:Typografernes Sang
T:Ole Olsen
C:Ole Olsen
%%score [ 1 2 3 4 ]
L:1/8
Q:1/4=96
M:4/4
K:D
V:1 treble-8 nm="Tenor"
V:2 treble-8 nm="Tenor"
V:3 bass nm="Bass"
V:4 bass nm="Bass"
V:1
!f!"^Tempo di Marcia" A2 | d3 A!<(! F3/2 A/!<)! d f | !^!a4 z d g e | !^!a2 !^!d2 !^!g2 !^!f2 | %4
w: O|Gu- ten- berg vor Fa- der|stor, vi føl- ger|gjer- ne i dit|
 e6 z!p! A | A3!<(! c f2!<)! e2 | d6 z B |!<(! B3 ^d!<)! ^g2 f2 | e6 z2 | z8 | z4 z2!f! A2 | %11
w: Spor, at|tryl- le Ord- et|frem, at|tryl- le Ord- et|frem,||der|
 !^!g3 g B2 c2 | d2 f2 A2 z!mp! A |!<(! B3 B c3/2!<)! c/ d3/2 d/ | e6 z!mf! e | %15
w: før i stær- ke|Læn- ker lagt, dog|ved din Kunst den stær- ke|Magt, dog|
!<(! e3 e f3/2!<)! f/ !^!e !^!f | !^!g4 z2!ff! d2 | a3 a g2 d2 | f8 | z2!f! !^!A2 !^!B2 !^!g2 | %20
w: ved din Kunst den stær- ke|Magt, sig|spre- der til hvert|Hjem,|sig spre- der|
 !^!f4 !^!e4 | !^!d6 z2 :|"^(Efter sidste Vers)" z8 | d4 d4 | a3 a a2 a2 | !fermata!d6 z2 |] %26
w: til hvert|Hjem||hil dig,|hil dig Gu- ten-|berg.|
V:2
!f! A2 | A3 A!<(! F3/2 A/!<)! A d | !^!f4 z d d c | !^!A2 !^!B2 !^!c2 !^!d2 | e6 z!p! A | %5
w: O|Gu- ten- berg vor Fa- der|stor, vi føl- ger|gjer- ne i dit|Spor, at|
 A3!<(! A c2!<)! c2 | d6 z B |!<(! B3 B!<)! ^d2 d2 | e6 z2 | z8 | z4 z2!f! A2 | !^!B3 B G2 A2 | %12
w: tryl- le Ord- et|frem, at|tryl- le Ord- et|frem,||der|før i stær- ke|
 A2 d2 A2 z!mp! A |!<(! B3 B ^A3/2!<)! A/ B3/2 B/ | c6 z!mf! c |!<(! c3 c d3/2!<)! d/ !^!d !^!d | %16
w: Læn- ker lagt, dog|ved din Kunst den stær- ke|Magt, dog|ved din Kunst den stær- ke|
 !^!d4 z2!ff! d2 | d3 d d2 d2 | d8 | z2!f! !^!A2 !^!B2 !^!d2 | !^!c4 !^!c4 | !^!d6 z2 :| z8 | %23
w: Magt, sig|spre- der til hvert|Hjem,|sig spre- der|til hvert|Hjem||
 f4 f4 | f3 f f2 f2 | !fermata!d6 z2 |] %26
w: hil dig,|hil dig Gu- ten-|berg.|
V:3
!f! A,2 | F,3 F,!<(! F,3/2 F,/!<)! F, A, | !^!D4 z B, B, C | !^!D2 !^!B,2 !^!A,2 !^!D2 | C6 z2 | %5
w: O|Gu- ten- berg vor Fa- der|stor, vi føl- ger|gjer- ne i dit|Spor,|
 z4 z!<(! A, A, A,!<)! | A,2 D2 A,2 z2 | z4 z B, B, B, | B,2 E2 B,2!f! E,2 | !^!D3 D F,2 ^G,2 | %10
w: at tryl- le|Ord- et frem,|at tryl- le|Ord- et frem, der|før i stær- ke|
 !^!A,2 !^!C2 !^!E,2 A,2 | !^!A,3 A, B,A, G,2 | F,2 A,2 F,2 z!mp! F, | %13
w: Læn- ker lag, der|før i stær- * ke|Læn- ker lagt, dog|
!<(! G,3 G, F,3/2!<)! ^A,/ B,3/2 B,/ | C6 z!mf! A, |!<(! A,3 C D3/2!<)! D/ !^!C !^!=C | %16
w: ved din Kunst den stær- ke|Magt, dog|ved din Kunst den stær- ke|
 !^!B,4 z2!ff! B,2 | =C3 C B,2 _B,2 | A,8 | z2!f! !^!A,2 !^!A,2 !^!B,2 | !^!C4 !^!C4 | !^!D6 z2 :| %22
w: Magt, sig|spre- der til hvert|Hjem,|sig spre- der|til hvert|Hjem|
 D4 D4 | D4 D4 | D3 D D2 D2 | !fermata!D6 z2 |] %26
w: Hil dig,|hil dig,|hil dig Gu- ten-|berg.|
V:4
!f! A,2 | D,3 D,!<(! D,3/2 D,/!<)! F, A, | !^!D4 z B, G, A, | !^!F,2 !^!G,2 !^!E,2 !^!D,2 | %4
w: O|Gu- ten- berg vor Fa- der|stor, vi føl- ger|gjer- ne i dit|
 A,6 z!p! A, | A,3!<(! ^G, =G,2!<)! G,2 | F,6 z B, |!<(! B,3 ^A,!<)! =A,2 A,2 | ^G,6!f! E,2 | %9
w: Spor, at|tryl- le Ord- et|frem, at|tryl- le Ord- et|frem, der|
 !^!D3 D F,2 ^G,2 | !^!A,2 !^!C2 !^!E,2 A,2 | !^!A,3 A, G,F, E,2 | D,2 D,2 D,2 z!mp! D, | %13
w: før i stær- ke|Læn- ker lag, der|før i stær- * ke|Læn- ker lagt, dog|
!<(! G,3 G, F,3/2!<)! F,/ B,3/2 B,/ | A,6 z!mf! A, |!<(! A,3 A, D3/2!<)! D/ !^!C !^!=C | %16
w: ved din Kunst den stær- ke|Magt, dog|ved din Kunst den stær- ke|
 !^!B,4 z2!ff! B,2 | F,3 F, G,2 G,2 | !^!D,2 !^!D2 !^!C2 !^!B,2 | A,4 A,4 | !^!A,4 !^!A,4 | %21
w: Magt, sig|spre- der til hvert|Hjem, sig spre- der|til hvert,|til hvert|
 !^!D6 z2 :| D4 D4 | D4 D4 | D3 D D2 D2 | !fermata!D6 z2 |] %26
w: Hjem|Hil dig,|hil dig,|hil dig Gu- ten-|berg.|

